logos/staga_c.svg

<svg width="19" height="162" viewBox="0 0 19 162" fill="none" xmlns="http://www.w3.org/2000/svg"><path d="M7.69247 159.141C6.69877 158.805 5.9831 158.095 5.9831 156.669C5.9831 155.243 7.0281 154.051 8.50313 154.007V161.188C8.54747 161.188 8.8825 161.233 9.2625 161.233C12.3462 161.233 14.3469 159.471 14.3469 156.428C14.3469 153.956 12.3019 151.675 9.21183 151.675C5.8881 151.675 3.9444 154.051 3.9444 156.669C3.9444 159.046 5.3694 160.567 7.0281 161.093L7.69247 159.141ZM10.2125 154.051C11.2569 154.146 12.3969 155.002 12.3969 156.479C12.3969 158.095 11.3519 158.856 10.2125 158.856V154.051ZM17.4806 147.161C16.6256 147.161 15.9613 147.827 15.9613 148.683C15.9613 149.538 16.6256 150.204 17.4806 150.204C18.3356 150.204 19 149.538 19 148.683C19 147.827 18.3356 147.161 17.4806 147.161ZM4.27373 149.823H14.0556V147.542H4.27373V149.823ZM14.1062 145.969C14.1062 145.875 14.1506 145.634 14.1506 145.349C14.1506 144.068 13.5362 142.972 12.4919 142.497H14.0556V140.265H4.27373V142.591H8.92747C10.7312 142.591 11.7762 143.403 11.7762 145.21C11.7762 145.444 11.7762 145.735 11.7319 145.969H14.1062ZM7.69247 136.317C6.69877 136.032 5.9831 135.271 5.9831 133.896C5.9831 132.419 7.0281 131.278 8.50313 131.234V138.364C8.54747 138.364 8.8825 138.409 9.2625 138.409C12.3462 138.409 14.3469 136.653 14.3469 133.655C14.3469 131.182 12.3019 128.901 9.21183 128.901C5.8881 128.901 3.9444 131.234 3.9444 133.896C3.9444 136.222 5.3694 137.794 7.0281 138.313L7.69247 136.317ZM10.2125 131.278C11.2569 131.329 12.3969 132.184 12.3969 133.655C12.3969 135.271 11.3519 136.032 10.2125 136.083V131.278ZM4.27373 127.044H18.81V124.717H4.27373V127.044ZM5.7931 117.587C5.7931 116.637 6.41377 116.161 7.0281 116.161C7.83813 116.161 8.26247 116.732 8.35747 117.441L8.73683 120.009H8.31313C6.41377 120.009 5.7931 118.867 5.7931 117.587ZM6.9331 113.828C5.3694 113.828 3.9444 115.064 3.9444 117.112C3.9444 118.728 4.74873 119.679 5.5081 120.154C4.7044 120.154 4.3244 120.199 4.27373 120.249V122.385C4.36873 122.385 4.93873 122.29 5.84377 122.29H10.6875C12.6306 122.29 14.3469 121.149 14.3469 118.107C14.3469 115.73 12.8212 114.209 11.1625 114.018L10.6875 116.161C11.6369 116.256 12.4412 116.922 12.4412 118.157C12.4412 119.438 11.7762 120.009 10.9218 120.009C10.5925 120.009 10.3075 119.818 10.2568 119.299L9.87683 116.775C9.6425 115.109 8.64247 113.828 6.9331 113.828ZM6.69877 106.888C6.69877 105.367 7.74313 104.366 9.4525 104.366C11.1112 104.366 12.2069 105.411 12.2069 106.888C12.2069 108.358 11.1112 109.405 9.4525 109.405C7.78747 109.405 6.69877 108.358 6.69877 106.888ZM3.70373 101.989C1.76003 102.23 0.145667 104.036 0.145667 106.647C0.145667 110.31 2.56437 111.642 5.1794 111.642H14.0556V109.405H12.7762C13.5806 108.98 14.2012 108.029 14.2012 106.508C14.2012 103.845 12.0612 101.989 9.4525 101.989C6.69877 101.989 4.7044 103.89 4.7044 106.508C4.7044 107.933 5.3694 108.929 6.12877 109.36H5.08377C3.13437 109.36 2.18437 108.409 2.18437 106.552C2.18437 105.221 3.0894 104.27 4.27373 104.132L3.70373 101.989ZM6.9331 92.6713C5.7931 92.8107 3.9444 93.9076 3.9444 96.7088C3.9444 99.2314 5.6031 100.416 7.07813 100.416C8.54747 100.416 9.6425 99.4657 10.0668 97.6151L10.3518 96.1382C10.4975 95.5239 10.8769 95.1432 11.3962 95.1432C11.9662 95.1432 12.4919 95.7139 12.4919 96.5695C12.4919 97.8501 11.5862 98.2808 11.0675 98.3758L11.5862 100.322C12.5869 100.182 14.3469 99.2764 14.3469 96.5695C14.3469 94.5219 12.8712 92.957 11.2062 92.957C9.8325 92.957 8.73683 93.8563 8.35747 95.5682L8.02813 97.0451C7.83813 97.8051 7.45813 98.1858 6.9331 98.1858C6.31877 98.1858 5.7931 97.6595 5.7931 96.7088C5.7931 95.4732 6.60377 94.8076 7.45813 94.7126L6.9331 92.6713ZM17.0063 89.3881V87.2519H15.5813C14.6756 87.2519 14.0556 86.8212 14.0556 85.7756V85.2493H11.9662V87.0619H7.0281C5.22373 87.0619 4.1344 88.2032 4.1344 90.0094C4.1344 90.8651 4.3244 91.2894 4.36873 91.4357H6.2681C6.2681 91.3401 6.22377 90.9601 6.22377 90.6238C6.22377 89.7682 6.5531 89.3881 7.40747 89.3881H11.9662V91.3851H14.0556V89.3881H17.0063ZM5.7931 78.9299C5.7931 78.0236 6.41377 77.5043 7.0281 77.5043C7.83813 77.5043 8.26247 78.0743 8.35747 78.7842L8.73683 81.3512H8.31313C6.41377 81.3512 5.7931 80.2105 5.7931 78.9299ZM6.9331 75.1717C5.3694 75.1717 3.9444 76.458 3.9444 78.4986C3.9444 80.0705 4.74873 81.0218 5.5081 81.4968C4.7044 81.4968 4.3244 81.5918 4.27373 81.5918V83.7787C4.36873 83.728 4.93873 83.633 5.84377 83.633H10.6875C12.6306 83.633 14.3469 82.4924 14.3469 79.5005C14.3469 77.073 12.8212 75.5517 11.1625 75.3617L10.6875 77.5043C11.6369 77.5993 12.4412 78.2643 12.4412 79.5005C12.4412 80.7805 11.7762 81.3512 10.9218 81.3512C10.5925 81.3512 10.3075 81.2118 10.2568 80.6412L9.87683 78.1186C9.6425 76.458 8.64247 75.1717 6.9331 75.1717ZM5.7931 68.6554C5.7931 67.756 6.41377 67.2297 7.0281 67.2297C7.83813 67.2297 8.26247 67.8504 8.35747 68.561L8.73683 71.1279H8.31313C6.41377 71.1279 5.7931 69.9866 5.7931 68.6554ZM6.9331 64.9035C5.3694 64.9035 3.9444 66.1841 3.9444 68.231C3.9444 69.8473 4.74873 70.7979 5.5081 71.2736C4.7044 71.2736 4.3244 71.3179 4.27373 71.3686V73.5105C4.36873 73.5105 4.93873 73.4161 5.84377 73.4161H10.6875C12.6306 73.4161 14.3469 72.2748 14.3469 69.226C14.3469 66.8491 12.8212 65.2835 11.1625 65.1378L10.6875 67.2297C11.6369 67.3754 12.4412 68.041 12.4412 69.2766C12.4412 70.5573 11.7762 71.1279 10.9218 71.1279C10.5925 71.1279 10.3075 70.9373 10.2568 70.3673L9.87683 67.8954C9.6425 66.1841 8.64247 64.9035 6.9331 64.9035ZM17.0063 61.1003V58.9578H15.5813C14.6756 58.9578 14.0556 58.5334 14.0556 57.4878V56.9615H11.9662V58.7684H7.0281C5.22373 58.7684 4.1344 59.909 4.1344 61.7153C4.1344 62.5709 4.3244 63.0022 4.36873 63.1416H6.2681C6.2681 63.0459 6.22377 62.6659 6.22377 62.3366C6.22377 61.481 6.5531 61.1003 7.40747 61.1003H11.9662V63.0972H14.0556V61.1003H17.0063ZM15.1506 55.6752C16.7656 55.3896 18.81 54.0589 18.81 50.7314C18.81 48.0689 16.8156 45.882 14.4419 45.882C12.3019 45.882 10.8769 47.3082 10.4468 49.4951L10.0225 51.4914C9.78183 52.7277 9.02247 53.3933 8.07247 53.3933C6.98313 53.3933 6.12877 52.5377 6.12877 50.8264C6.12877 48.7852 7.50247 47.6889 8.9775 47.5495L8.35747 45.312C6.2681 45.5526 3.9444 47.2132 3.9444 50.8264C3.9444 54.0589 6.0781 55.8652 8.26247 55.8652C10.2568 55.8652 11.8712 54.4896 12.3462 52.0177L12.7762 49.9701C13.0106 48.8295 13.7262 48.2589 14.6319 48.2589C15.7206 48.2589 16.67 49.3051 16.67 50.7314C16.67 52.6327 15.3406 53.3933 14.4862 53.539L15.1506 55.6752ZM0 -0.000488281V22.5386H7.31247V7.51021H18.81V-0.000488281H0ZM11.4912 11.269V26.2904H0V33.8075H18.81V11.269H11.4912Z" fill="currentColor"></path></svg>

<svg width="19" height="162" viewBox="0 0 19 162" xmlns="http://www.w3.org/2000/svg"><path d="M7.692 159.141c-.993-.336-1.709-1.046-1.709-2.472s1.045-2.618 2.52-2.662v7.181c.044 0 .38.045.76.045 3.083 0 5.084-1.762 5.084-4.805 0-2.472-2.045-4.753-5.135-4.753-3.324 0-5.268 2.376-5.268 4.994 0 2.377 1.425 3.898 3.084 4.424zm2.52-5.09c1.045.095 2.185.951 2.185 2.428 0 1.616-1.045 2.377-2.184 2.377zm7.269-6.89c-.855 0-1.52.666-1.52 1.522a1.5 1.5 0 0 0 1.52 1.521A1.5 1.5 0 0 0 19 148.683c0-.856-.664-1.522-1.52-1.522m-13.207 2.662h9.782v-2.281H4.274zm9.832-3.854c0-.094.045-.335.045-.62 0-1.281-.615-2.377-1.66-2.852h1.565v-2.232H4.274v2.326h4.653c1.804 0 2.85.812 2.85 2.619 0 .234 0 .525-.045.759zm-6.414-9.652c-.993-.285-1.709-1.046-1.709-2.421 0-1.477 1.045-2.618 2.52-2.662v7.13c.044 0 .38.045.76.045 3.083 0 5.084-1.756 5.084-4.754 0-2.473-2.045-4.754-5.135-4.754-3.324 0-5.268 2.333-5.268 4.995 0 2.326 1.425 3.898 3.084 4.417zm2.52-5.039a2.324 2.324 0 0 1 2.185 2.377c0 1.616-1.045 2.377-2.184 2.428zm-5.938-4.234H18.81v-2.327H4.274zm1.52-9.457c0-.95.62-1.426 1.234-1.426.81 0 1.234.571 1.33 1.28l.379 2.568h-.424c-1.9 0-2.52-1.142-2.52-2.422m1.14-3.759c-1.565 0-2.99 1.236-2.99 3.284 0 1.616.805 2.567 1.564 3.042-.804 0-1.184.045-1.234.095v2.136c.095 0 .665-.095 1.57-.095h4.844c1.943 0 3.659-1.141 3.659-4.183 0-2.377-1.526-3.898-3.184-4.089l-.476 2.143c.95.095 1.754.761 1.754 1.996 0 1.281-.665 1.852-1.52 1.852-.328 0-.614-.191-.664-.71l-.38-2.524c-.235-1.666-1.235-2.947-2.944-2.947m-.235-6.94c0-1.521 1.044-2.522 2.754-2.522 1.658 0 2.754 1.045 2.754 2.522 0 1.47-1.096 2.517-2.754 2.517-1.666 0-2.754-1.047-2.754-2.517m-2.995-4.899c-1.944.241-3.558 2.047-3.558 4.658 0 3.663 2.418 4.995 5.033 4.995h8.877v-2.237h-1.28c.805-.425 1.425-1.376 1.425-2.897 0-2.663-2.14-4.519-4.748-4.519-2.754 0-4.749 1.901-4.749 4.519 0 1.425.665 2.421 1.425 2.852H5.084c-1.95 0-2.9-.951-2.9-2.808 0-1.331.905-2.282 2.09-2.42zm3.23-9.318c-1.14.14-2.99 1.237-2.99 4.038 0 2.522 1.66 3.707 3.134 3.707 1.47 0 2.565-.95 2.989-2.8l.285-1.478c.146-.614.525-.995 1.044-.995.57 0 1.096.57 1.096 1.427 0 1.28-.906 1.71-1.424 1.806l.518 1.946c1-.14 2.76-1.046 2.76-3.752 0-2.048-1.475-3.613-3.14-3.613-1.373 0-2.47.9-2.849 2.611l-.329 1.477c-.19.76-.57 1.14-1.095 1.14-.614 0-1.14-.526-1.14-1.476 0-1.236.81-1.901 1.665-1.996zm10.072-3.283v-2.136h-1.425c-.905 0-1.525-.43-1.525-1.476v-.527h-2.09v1.813H7.028c-1.804 0-2.894 1.141-2.894 2.947 0 .856.19 1.28.235 1.427h1.9c0-.096-.045-.476-.045-.812 0-.856.33-1.236 1.183-1.236h4.56v1.997h2.089v-1.997zM5.793 78.93c0-.906.62-1.426 1.235-1.426.81 0 1.234.57 1.33 1.28l.379 2.567h-.424c-1.9 0-2.52-1.14-2.52-2.421m1.14-3.758c-1.564 0-2.989 1.286-2.989 3.327 0 1.572.805 2.523 1.564 2.998-.804 0-1.184.095-1.234.095v2.187c.095-.051.665-.146 1.57-.146h4.844c1.943 0 3.659-1.14 3.659-4.132 0-2.428-1.526-3.95-3.184-4.14l-.476 2.143c.95.095 1.754.76 1.754 1.996 0 1.28-.665 1.851-1.52 1.851-.328 0-.614-.14-.664-.71l-.38-2.522c-.235-1.661-1.235-2.947-2.944-2.947m-1.14-6.517c0-.899.62-1.425 1.235-1.425.81 0 1.234.62 1.33 1.331l.379 2.567h-.424c-1.9 0-2.52-1.141-2.52-2.473m1.14-3.752c-1.564 0-2.989 1.281-2.989 3.328 0 1.616.805 2.567 1.564 3.043-.804 0-1.184.044-1.234.095v2.141c.095 0 .665-.094 1.57-.094h4.844c1.943 0 3.659-1.141 3.659-4.19 0-2.377-1.526-3.942-3.184-4.088l-.476 2.092c.95.145 1.754.811 1.754 2.047 0 1.28-.665 1.85-1.52 1.85-.328 0-.614-.19-.664-.76l-.38-2.472c-.235-1.71-1.235-2.992-2.944-2.992M17.006 61.1v-2.142h-1.425c-.905 0-1.525-.425-1.525-1.47v-.526h-2.09v1.806H7.028c-1.804 0-2.894 1.141-2.894 2.947 0 .856.19 1.287.235 1.427h1.9c0-.096-.045-.476-.045-.805 0-.856.33-1.237 1.183-1.237h4.56v1.997h2.089V61.1zm-1.855-5.425c1.615-.285 3.659-1.616 3.659-4.944 0-2.662-1.994-4.849-4.368-4.849-2.14 0-3.565 1.426-3.995 3.613l-.424 1.996c-.241 1.237-1 1.902-1.95 1.902-1.09 0-1.944-.855-1.944-2.567 0-2.04 1.373-3.137 2.848-3.276l-.62-2.238c-2.089.24-4.413 1.901-4.413 5.514 0 3.233 2.134 5.04 4.318 5.04 1.995 0 3.61-1.376 4.084-3.848l.43-2.048c.235-1.14.95-1.711 1.856-1.711 1.089 0 2.038 1.046 2.038 2.472 0 1.902-1.33 2.662-2.184 2.808zM0 0v22.539h7.312V7.51H18.81V0zm11.491 11.269V26.29H0v7.517h18.81V11.27z" fill="#ffffff"/></svg>
